src/assets/filled/DocumentCloud.svg

<svg width="24" height="24" viewBox="0 0 24 24"  xmlns="http://www.w3.org/2000/svg">
<path d="M15.7999 2.21048C15.3899 1.80048 14.6799 2.08048 14.6799 2.65048V6.14048C14.6799 7.60048 15.9199 8.81048 17.4299 8.81048C18.3799 8.82048 19.6999 8.82048 20.8299 8.82048C21.3999 8.82048 21.6999 8.15048 21.2999 7.75048C19.8599 6.30048 17.2799 3.69048 15.7999 2.21048Z" />
<path d="M14.7601 19.2598C12.4101 19.4298 12.4101 22.8298 14.7601 22.9998H20.3201C20.9901 22.9998 21.6501 22.7498 22.1401 22.2998C23.7901 20.8598 22.9101 17.9798 20.7401 17.7098C19.9601 13.0198 13.1801 14.7998 14.7801 19.2698" />
<path d="M21.5 11.19V14.44C21.5 14.74 21.06 14.88 20.84 14.67C20.36 14.2 19.77 13.84 19.09 13.63C17.41 13.11 15.46 13.62 14.25 14.9C13.44 15.74 13.03 16.81 13.04 17.97C13.04 18.16 12.95 18.33 12.8 18.44C12 19.05 11.5 20.01 11.5 21.12C11.5 21.2 11.5 21.28 11.51 21.36C11.53 21.68 11.3 21.99 10.97 21.99H8.07C4.99 21.99 2.5 19.99 2.5 16.42V7.57C2.5 4 4.99 2 8.07 2H12.31C12.86 2 13.31 2.45 13.31 3V5.89C13.31 8.27 15.23 10.19 17.61 10.19H20.5C21.05 10.19 21.5 10.64 21.5 11.19Z" />
</svg>

<?xml version="1.0" encoding="UTF-8"?>
<svg width="24" height="24" viewBox="0 0 24 24" xmlns="http://www.w3.org/2000/svg">
 <path d="m15.8 2.2105c-0.41-0.41-1.12-0.13-1.12 0.44v3.49c0 1.46 1.24 2.67 2.75 2.67 0.95 0.01 2.27 0.01 3.4 0.01 0.57 0 0.87-0.67 0.47-1.07-1.44-1.45-4.02-4.06-5.5-5.54z"/>
 <path d="m14.76 19.26c-2.35 0.17-2.35 3.57 0 3.74h5.56c0.67 0 1.33-0.25 1.82-0.7 1.65-1.44 0.77-4.32-1.4-4.59-0.78-4.69-7.56-2.91-5.96 1.56"/>
 <path d="m21.5 11.19v3.25c0 0.3-0.44 0.44-0.66 0.23-0.48-0.47-1.07-0.83-1.75-1.04-1.68-0.52-3.63-0.01-4.84 1.27-0.81 0.84-1.22 1.91-1.21 3.07 0 0.19-0.09 0.36-0.24 0.47-0.8 0.61-1.3 1.57-1.3 2.68 0 0.08 0 0.16 0.01 0.24 0.02 0.32-0.21 0.63-0.54 0.63h-2.9c-3.08 0-5.57-2-5.57-5.57v-8.85c0-3.57 2.49-5.57 5.57-5.57h4.24c0.55 0 1 0.45 1 1v2.89c0 2.38 1.92 4.3 4.3 4.3h2.89c0.55 0 1 0.45 1 1z"/>
</svg>
